packages/swarm-icons/src/icons/large/Instagram.svg

<?xml version="1.0" encoding="UTF-8"?>
<svg width="28px" height="28px" viewBox="0 0 28 28" version="1.1" xmlns="http://www.w3.org/2000/svg" xmlns:xlink="http://www.w3.org/1999/xlink">
    <!-- Generator: Sketch 61.2 (89653) - https://sketch.com -->
    <title>28dp/Logo Instagram</title>
    <desc>Created with Sketch.</desc>
    <g id="28dp/Logo-Instagram" stroke="none" stroke-width="1" fill="none" fill-rule="evenodd">
        <path d="M13.9962381,2 C10.7382381,2 10.3297143,2.01380952 9.05019048,2.07219048 C7.77333333,2.13042857 6.90128571,2.3332381 6.1382381,2.62980952 C5.34938095,2.93633333 4.68038095,3.34652381 4.01342857,4.01342857 C3.34652381,4.68038095 2.93633333,5.34938095 2.62980952,6.1382381 C2.3332381,6.90128571 2.13042857,7.77333333 2.07219048,9.05019048 C2.01380952,10.3297143 2,10.7382381 2,13.9962381 C2,17.2541905 2.01380952,17.6627143 2.07219048,18.9422381 C2.13042857,20.2190952 2.3332381,21.0911429 2.62980952,21.8541905 C2.93633333,22.6430476 3.34652381,23.3120476 4.01342857,23.979 C4.68038095,24.6459048 5.34938095,25.0560952 6.1382381,25.3626667 C6.90128571,25.6591905 7.77333333,25.862 9.05019048,25.9202381 C10.3297143,25.978619 10.7382381,25.9924286 13.9962381,25.9924286 C17.2541905,25.9924286 17.6627143,25.978619 18.9422381,25.9202381 C20.2190952,25.862 21.0911429,25.6591905 21.8541905,25.3626667 C22.6430476,25.0560952 23.3120476,24.6459048 23.979,23.979 C24.6459048,23.3120476 25.0560952,22.6430476 25.3626667,21.8541905 C25.6591905,21.0911429 25.862,20.2190952 25.9202381,18.9422381 C25.978619,17.6627143 25.9924286,17.2541905 25.9924286,13.9962381 C25.9924286,10.7382381 25.978619,10.3297143 25.9202381,9.05019048 C25.862,7.77333333 25.6591905,6.90128571 25.3626667,6.1382381 C25.0560952,5.34938095 24.6459048,4.68038095 23.979,4.01342857 C23.3120476,3.34652381 22.6430476,2.93633333 21.8541905,2.62980952 C21.0911429,2.3332381 20.2190952,2.13042857 18.9422381,2.07219048 C17.6627143,2.01380952 17.2541905,2 13.9962381,2 Z M18.8437143,4.23142857 C20.0133333,4.2847619 20.6485238,4.48019048 21.0712381,4.64447619 C21.6311905,4.86209524 22.0308095,5.12204762 22.4505714,5.54185714 C22.870381,5.96161905 23.1303333,6.3612381 23.3479524,6.92119048 C23.5122381,7.34390476 23.7076667,7.97909524 23.761,9.14871429 C23.811019,10.2450063 23.8268804,10.6761716 23.8302209,12.8567868 L23.8302209,15.1356728 C23.8268804,17.3162569 23.811019,17.7474222 23.761,18.8437143 C23.7076667,20.0133333 23.5122381,20.6485238 23.3479524,21.0712381 C23.1303333,21.6311905 22.870381,22.0308095 22.4505714,22.4505714 C22.0308095,22.870381 21.6311905,23.1303333 21.0712381,23.3479524 C20.6485238,23.5122381 20.0133333,23.7076667 18.8437143,23.761 C17.7475873,23.811019 17.3164798,23.8268804 15.1357531,23.8302209 L12.8567086,23.8302209 C10.6759598,23.8268804 10.2448825,23.811019 9.14871429,23.761 C7.97909524,23.7076667 7.34390476,23.5122381 6.92119048,23.3479524 C6.3612381,23.1303333 5.96161905,22.870381 5.54185714,22.4505714 C5.12209524,22.0308095 4.86209524,21.6311905 4.64447619,21.0712381 C4.48019048,20.6485238 4.2847619,20.0133333 4.23142857,18.8437143 C4.17948571,17.7052571 4.16437857,17.2840743 4.16187657,14.8761659 L4.16187657,13.1162974 C4.16437857,10.7083543 4.17948571,10.2871714 4.23142857,9.14871429 C4.2847619,7.97909524 4.48019048,7.34390476 4.64447619,6.92119048 C4.86209524,6.3612381 5.12204762,5.96161905 5.54185714,5.54185714 C5.96161905,5.12204762 6.3612381,4.86209524 6.92119048,4.64447619 C7.34390476,4.48019048 7.97909524,4.2847619 9.14871429,4.23142857 C10.2871714,4.17948571 10.7083543,4.16437857 13.1162974,4.16187657 L14.8761659,4.16187657 C17.2840743,4.16437857 17.7052571,4.17948571 18.8437143,4.23142857 Z M13.9962381,7.836 C10.594,7.836 7.836,10.594 7.836,13.9962381 C7.836,17.3984286 10.594,20.1564286 13.9962381,20.1564286 C17.3984286,20.1564286 20.1564286,17.3984286 20.1564286,13.9962381 C20.1564286,10.594 17.3984286,7.836 13.9962381,7.836 Z M13.9962381,9.99747619 C16.2046667,9.99747619 17.9949524,11.7877619 17.9949524,13.9962381 C17.9949524,16.2046667 16.2046667,17.9949524 13.9962381,17.9949524 C11.7877619,17.9949524 9.99747619,16.2046667 9.99747619,13.9962381 C9.99747619,11.7877619 11.7877619,9.99747619 13.9962381,9.99747619 Z M20.3998095,6.15304762 C19.6048095,6.15304762 18.9602857,6.79757143 18.9602857,7.59261905 C18.9602857,8.38766667 19.6048095,9.03214286 20.3998095,9.03214286 C21.1948571,9.03214286 21.839381,8.38766667 21.839381,7.59261905 C21.839381,6.79757143 21.1948571,6.15304762 20.3998095,6.15304762 Z" id="Color" fill="#212121" fill-rule="nonzero"></path>
    </g>
</svg>

<svg width="28" height="28" xmlns="http://www.w3.org/2000/svg"><path d="M13.996 2c-3.258 0-3.666.014-4.946.072-1.277.058-2.149.261-2.912.558a5.88 5.88 0 00-2.125 1.383A5.88 5.88 0 002.63 6.138c-.297.763-.5 1.635-.558 2.912C2.014 10.33 2 10.738 2 13.996s.014 3.667.072 4.946c.058 1.277.261 2.15.558 2.912a5.88 5.88 0 001.383 2.125 5.88 5.88 0 002.125 1.384c.763.296 1.635.499 2.912.557 1.28.059 1.688.072 4.946.072s3.667-.013 4.946-.072c1.277-.058 2.15-.26 2.912-.557a5.88 5.88 0 002.125-1.384 5.88 5.88 0 001.384-2.125c.296-.763.499-1.635.557-2.912.059-1.28.072-1.688.072-4.946s-.013-3.666-.072-4.946c-.058-1.277-.26-2.149-.557-2.912a5.88 5.88 0 00-1.384-2.125 5.88 5.88 0 00-2.125-1.383c-.763-.297-1.635-.5-2.912-.558C17.662 2.014 17.254 2 13.996 2zm4.848 2.231c1.17.054 1.805.25 2.227.413.56.218.96.478 1.38.898.42.42.68.82.897 1.38.164.422.36 1.057.413 2.227.05 1.096.066 1.527.07 3.708v2.279c-.004 2.18-.02 2.611-.07 3.708-.053 1.17-.249 1.805-.413 2.227-.218.56-.478.96-.897 1.38-.42.42-.82.68-1.38.897-.422.164-1.058.36-2.227.413-1.096.05-1.528.066-3.708.07h-2.28c-2.18-.004-2.611-.02-3.707-.07-1.17-.053-1.805-.249-2.228-.413a3.716 3.716 0 01-1.38-.897c-.419-.42-.679-.82-.897-1.38-.164-.422-.36-1.058-.413-2.227-.052-1.139-.067-1.56-.07-3.968v-1.76c.003-2.408.018-2.829.07-3.967.054-1.17.25-1.805.413-2.228.218-.56.478-.96.898-1.38.42-.419.82-.679 1.38-.897.422-.164 1.057-.36 2.227-.413 1.138-.052 1.56-.067 3.967-.07h1.76c2.408.003 2.83.018 3.968.07zm-4.848 3.605a6.16 6.16 0 100 12.32 6.16 6.16 0 000-12.32zm0 2.161a3.999 3.999 0 110 7.998 3.999 3.999 0 010-7.998zM20.4 6.153a1.44 1.44 0 100 2.88 1.44 1.44 0 000-2.88z" fill="#212121" fill-rule="nonzero"/></svg>
